icons/book-3-fill.svg

<svg viewBox="0 0 24 24" fill="currentColor" xmlns="http://www.w3.org/2000/svg"><path d="M21 4H7C5.89543 4 5 4.89543 5 6C5 7.10457 5.89543 8 7 8H21V21C21 21.5523 20.5523 22 20 22H7C4.79086 22 3 20.2091 3 18V6C3 3.79086 4.79086 2 7 2H20C20.5523 2 21 2.44772 21 3V4ZM20 7H7C6.44772 7 6 6.55228 6 6C6 5.44772 6.44772 5 7 5H20V7Z"/></svg>

<svg xmlns="http://www.w3.org/2000/svg" viewBox="0 0 24 24">
    <g>
        <path fill="none" d="M0 0h24v24H0z"/>
        <path d="M21 4H7a2 2 0 1 0 0 4h14v13a1 1 0 0 1-1 1H7a4 4 0 0 1-4-4V6a4 4 0 0 1 4-4h13a1 1 0 0 1 1 1v1zm-1 3H7a1 1 0 1 1 0-2h13v2z"/>
    </g>
</svg>
